icon-svg/navidrome.svg

<?xml version="1.0" encoding="UTF-8" standalone="no"?>
<svg
   width="24"
   height="24"
   viewBox="0 0 24 24"
   version="1.1"
   xmlns="http://www.w3.org/2000/svg"
   xmlns:svg="http://www.w3.org/2000/svg">
  <path
     style="fill:#44739e"
     d="M 12,2 A 10,10 0 0 0 2,12 10,10 0 0 0 12,22 10,10 0 0 0 22,12 10,10 0 0 0 12,2 Z m 0,2.007812 A 0.39215293,0.39215293 0 0 1 12.39216,4.399969 0.39215293,0.39215293 0 0 1 12,4.792126 c -3.49223,0 -6.39751,2.485463 -7.06679,5.772366 A 0.39215293,0.39215293 0 0 1 4.47074,10.870558 0.39215293,0.39215293 0 0 1 4.16468,10.408088 C 4.90715,6.761691 8.13541,4.007812 12,4.007812 Z m 0,1.811735 A 0.39215293,0.39215293 0 0 1 12.39216,6.211703 0.39215293,0.39215293 0 0 1 12,6.60386 C 9.01212,6.60386 6.60386,9.019844 6.60386,12 A 0.39215293,0.39215293 0 0 1 6.2117,12.392157 0.39215293,0.39215293 0 0 1 5.81955,12 C 5.81955,8.595899 8.58793,5.819547 12,5.819547 Z m 0,2.360906 c 2.10484,10e-7 3.81955,1.714706 3.81955,3.819547 0,2.104841 -1.71471,3.819547 -3.81955,3.819547 C 9.89516,15.819547 8.18045,14.104841 8.18045,12 8.18045,9.895159 9.89516,8.180453 12,8.180453 Z m 0,0.784314 c -1.68098,0 -3.03523,1.354255 -3.03523,3.035233 0,1.680978 1.35425,3.035233 3.03523,3.035233 1.68098,0 3.03523,-1.354255 3.03523,-3.035233 0,-1.680978 -1.35425,-3.035233 -3.03523,-3.035233 z m 0,1.937194 c 0.60178,0 1.09804,0.496257 1.09804,1.098039 0,0.601782 -0.49626,1.098039 -1.09804,1.098039 -0.60178,0 -1.09804,-0.496257 -1.09804,-1.098039 0,-0.601782 0.49626,-1.098039 1.09804,-1.098039 z m -7.61826,0.447917 a 0.39215293,0.39215293 0 0 1 0.0616,7.84e-4 0.39215293,0.39215293 0 0 1 0.35509,0.426011 C 4.79243,11.839453 4.79243,11.913725 4.79243,12 A 0.39215293,0.39215293 0 0 1 4.40028,12.392157 0.39215293,0.39215293 0 0 1 4.00812,12 c 0,-0.08628 -4.7e-4,-0.184522 0.01,-0.294271 A 0.39215293,0.39215293 0 0 1 4.38255,11.349878 Z M 17.7883,11.607843 A 0.39215293,0.39215293 0 0 1 18.18045,12 c 0,3.404106 -2.76838,6.180454 -6.18045,6.180454 A 0.39215293,0.39215293 0 0 1 11.60784,17.788297 0.39215293,0.39215293 0 0 1 12,17.39614 c 2.98788,0 5.39614,-2.415982 5.39614,-5.39614 a 0.39215293,0.39215293 0 0 1 0.39216,-0.392157 z m 1.81173,0 A 0.39215293,0.39215293 0 0 1 19.99219,12 c 0,0.09412 6.2e-4,0.205293 -0.009,0.322763 a 0.39215293,0.39215293 0 0 1 -0.42341,0.358303 0.39215293,0.39215293 0 0 1 -0.3583,-0.423406 c 0.006,-0.07076 0.007,-0.163542 0.007,-0.25766 a 0.39215293,0.39215293 0 0 1 0.39215,-0.392157 z M 12,11.686273 c -0.17791,0 -0.31373,0.135812 -0.31373,0.313725 0,0.177913 0.13582,0.313725 0.31373,0.313725 0.17791,0 0.31373,-0.135812 0.31373,-0.313725 0,-0.177913 -0.13582,-0.313725 -0.31373,-0.313725 z m 7.35233,1.598039 a 0.39215293,0.39215293 0 0 1 0.15303,0.0037 0.39215293,0.39215293 0 0 1 0.29688,0.46829 C 19.00191,17.328877 15.80628,19.992208 12,19.992208 A 0.39215293,0.39215293 0 0 1 11.60784,19.600051 0.39215293,0.39215293 0 0 1 12,19.207894 c 3.44073,0 6.31568,-2.403469 7.03692,-5.623009 a 0.39215293,0.39215293 0 0 1 0.31541,-0.300551 z"
   />
</svg>

<svg xmlns="http://www.w3.org/2000/svg" viewBox="0 0 24 24"><path fill="#44739e" d="M12 2A10 10 0 0 0 2 12a10 10 0 0 0 10 10 10 10 0 0 0 10-10A10 10 0 0 0 12 2m0 2.008a.39.39 0 0 1 .392.392.39.39 0 0 1-.392.392c-3.492 0-6.398 2.486-7.067 5.772a.39.39 0 0 1-.462.307.39.39 0 0 1-.306-.463c.742-3.646 3.97-6.4 7.835-6.4m0 1.812a.39.39 0 0 1 .392.392.39.39 0 0 1-.392.392A5.39 5.39 0 0 0 6.604 12a.39.39 0 0 1-.392.392A.39.39 0 0 1 5.82 12 6.187 6.187 0 0 1 12 5.82m0 2.36A3.826 3.826 0 0 1 15.82 12 3.826 3.826 0 0 1 12 15.82 3.826 3.826 0 0 1 8.18 12 3.826 3.826 0 0 1 12 8.18m0 .785A3.03 3.03 0 0 0 8.965 12 3.03 3.03 0 0 0 12 15.035 3.03 3.03 0 0 0 15.035 12 3.03 3.03 0 0 0 12 8.965m0 1.937c.602 0 1.098.496 1.098 1.098s-.496 1.098-1.098 1.098A1.104 1.104 0 0 1 10.902 12c0-.602.496-1.098 1.098-1.098m-7.618.448a.4.4 0 0 1 .061 0 .39.39 0 0 1 .355.427q-.008.093-.006.223a.39.39 0 0 1-.392.392.39.39 0 0 1-.392-.392c0-.086 0-.185.01-.294a.39.39 0 0 1 .365-.356Zm13.406.258a.39.39 0 0 1 .392.392A6.187 6.187 0 0 1 12 18.18a.39.39 0 0 1-.392-.392.39.39 0 0 1 .392-.392A5.39 5.39 0 0 0 17.396 12a.39.39 0 0 1 .392-.392m1.812 0a.39.39 0 0 1 .392.392c0 .094 0 .205-.009.323a.39.39 0 0 1-.423.358.39.39 0 0 1-.359-.423 3 3 0 0 0 .007-.258.39.39 0 0 1 .393-.392Zm-7.6.078a.31.31 0 0 0-.314.314c0 .178.136.314.314.314a.31.31 0 0 0 .314-.314.31.31 0 0 0-.314-.314m7.352 1.598a.4.4 0 0 1 .153.004.39.39 0 0 1 .297.468A8 8 0 0 1 12 19.992a.39.39 0 0 1-.392-.392.39.39 0 0 1 .392-.392 7.21 7.21 0 0 0 7.037-5.623.39.39 0 0 1 .315-.3"/></svg>
